X: 1
T: Quadreglia Napoletana
T: Neapolitan Quadrille
Z: John Chambers <jc@trillian.mit.edu>
R: jig, tarantella
M: 6/8
L: 1/8
K: G
P: Intro
| "C"c3 e3 | "G"d3 g2g | "D7"fed cBA | "G"G2z z3 | z2 ||
|: B Bc^c | "G"d2B BAG | d2B BAG |1 "D7"F2F E2E | "G"D2 :|2 "D7"FED CB,A, | "G"G,2 ||
|: z gag | "D7"f2f e2e | "G"d2z gag | "D7"fgf efe | "G"d2
B Bc^c | "G"d2B BAG | d2B BAG | "D7"FED CB,A, | "G"G,2 :|
|: E EF^F | "C"G2E EF^F | G2E cdc | "G7"BcB ABA | "C"G2
E EF^F | "C"G2E EF^F | G2E cdc | "G7"BAG FED | "C"C2 :|
